docs/graphics/year-in-review/disco.svg

<svg viewBox="0 0 300 300" fill="none" xmlns="http://www.w3.org/2000/svg">
<path d="M107 31.5H196C199.59 31.5 202.5 34.4101 202.5 38V43C202.5 48.2467 198.247 52.5 193 52.5H110C104.753 52.5 100.5 48.2467 100.5 43V38C100.5 34.4101 103.41 31.5 107 31.5Z" fill="#111111" stroke="#111111" stroke-width="3"/>
<path d="M153 52V82" stroke="#111111" stroke-width="3" stroke-linejoin="round"/>
<path d="M243 174C243 226.467 200.467 269 148 269C95.5329 269 53 226.467 53 174C53 121.533 95.5329 79 148 79C200.467 79 243 121.533 243 174Z" fill="#111111"/>
<path d="M245.5 175C245.5 226.639 203.639 268.5 152 268.5C100.361 268.5 58.5 226.639 58.5 175C58.5 123.361 100.361 81.5 152 81.5C203.639 81.5 245.5 123.361 245.5 175Z" fill="white" stroke="#111111" stroke-width="3"/>
<path fill-rule="evenodd" clip-rule="evenodd" d="M153.241 245.495L153.5 270.016L156.5 269.984L156.241 245.494C163.694 245.438 171.332 244.981 179.038 244.022C177.308 251.206 175.235 258.386 172.777 265.511L175.612 266.489C178.231 258.899 180.419 251.248 182.224 243.597C191.518 242.274 200.891 240.204 210.141 237.212C208.29 241.954 206.154 246.659 203.708 251.3L206.362 252.699C209.264 247.192 211.737 241.602 213.824 235.969C219.165 234.091 224.457 231.895 229.66 229.347L228.34 226.653C223.993 228.782 219.579 230.661 215.124 232.311C217.91 224.124 219.908 215.868 221.252 207.671C228.311 205.996 235.398 204.013 242.469 201.685L241.531 198.836C234.939 201.005 228.331 202.873 221.744 204.467C223.108 194.978 223.616 185.589 223.478 176.5H245V173.5H223.409C223.286 169.491 223.04 165.545 222.689 161.68C222.175 156.012 221.436 150.514 220.529 145.241C227.519 146.898 234.534 148.861 241.531 151.164L242.469 148.314C234.963 145.844 227.44 143.762 219.951 142.024C218.238 132.907 216.044 124.521 213.68 117.163C218.626 118.936 223.523 120.988 228.34 123.347L229.66 120.653C224.022 117.892 218.28 115.544 212.484 113.566C210.116 106.685 207.635 100.842 205.337 96.3204L202.663 97.6792C204.656 101.602 206.801 106.571 208.89 112.389C199.827 109.542 190.656 107.57 181.563 106.31C179.558 97.532 177.408 90.1387 175.414 84.4998L172.586 85.4997C174.465 90.8148 176.486 97.7216 178.391 105.898C170.389 104.931 162.465 104.502 154.749 104.5L154.5 80.9839L151.5 81.0156L151.749 104.52C147.537 104.579 143.392 104.761 139.337 105.05C134.222 105.414 129.243 105.946 124.445 106.609C126.397 98.1215 128.481 90.9682 130.414 85.4997L127.586 84.4998C125.535 90.3012 123.318 97.9597 121.264 107.072C111.116 108.622 101.843 110.743 93.8673 113.069C96.0321 106.958 98.2672 101.754 100.337 97.6792L97.6626 96.3204C95.3014 100.968 92.7461 107.011 90.3186 114.143C83.9509 116.144 78.5461 118.251 74.3556 120.244L75.6444 122.953C79.2511 121.237 83.8141 119.424 89.1589 117.667C86.8607 124.891 84.7303 133.086 83.0583 141.976C73.582 144.179 66.1658 146.553 61.4019 148.624L62.5981 151.375C66.9713 149.474 73.7672 147.274 82.4786 145.195C81.5685 150.482 80.8266 155.996 80.3109 161.68C79.9603 165.545 79.7141 169.491 79.5907 173.5H58V176.5H79.5218C79.384 185.602 79.8934 195.006 81.2619 204.511C73.1331 202.519 66.7656 200.436 62.5981 198.624L61.4019 201.375C65.9453 203.351 72.9012 205.601 81.7558 207.716C83.0744 215.746 85.0204 223.831 87.7208 231.852C82.9924 230.246 78.9232 228.606 75.6444 227.046L74.3556 229.755C78.2486 231.607 83.1896 233.557 88.9771 235.429C91.1056 241.244 93.6429 247.016 96.6376 252.699L99.2916 251.3C96.7331 246.445 94.5147 241.521 92.6053 236.558C100.687 238.977 110.171 241.2 120.595 242.824C122.435 250.732 124.68 258.643 127.388 266.489L130.223 265.511C127.683 258.147 125.553 250.724 123.789 243.298C128.789 244.005 133.988 244.569 139.337 244.95C143.87 245.272 148.515 245.462 153.241 245.495ZM156.209 242.494C163.916 242.437 171.812 241.944 179.768 240.904C181.825 231.848 183.348 222.798 184.419 213.857C174.659 214.861 165.117 215.366 155.923 215.476L156.209 242.494ZM182.943 240.461C192.471 239.041 202.062 236.818 211.494 233.601C214.495 225.248 216.643 216.802 218.087 208.402C207.763 210.721 197.514 212.391 187.479 213.527C186.435 222.426 184.95 231.437 182.943 240.461ZM153.209 242.495C148.57 242.462 144.008 242.274 139.549 241.957C133.859 241.553 128.344 240.937 123.065 240.163C121.088 231.336 119.617 222.517 118.574 213.803C122.542 214.207 126.642 214.551 130.858 214.822C137.909 215.274 145.289 215.52 152.923 215.498L153.209 242.495ZM119.884 239.674C117.96 230.896 116.529 222.133 115.515 213.476C103.98 212.188 93.6403 210.399 84.9211 208.448C86.3314 216.638 88.4115 224.872 91.2983 233.019C99.3916 235.558 109.101 237.935 119.884 239.674ZM182.259 109.438C191.55 110.786 200.906 112.893 210.121 115.937C212.599 123.336 214.933 131.907 216.759 141.303C206.666 139.088 196.65 137.49 186.842 136.401C185.592 126.538 183.996 117.466 182.259 109.438ZM154.781 107.5C162.722 107.504 170.875 107.965 179.095 109.009C180.863 117.024 182.496 126.137 183.776 136.077C173.937 135.086 164.323 134.601 155.066 134.514L154.781 107.5ZM139.549 108.042C143.549 107.758 147.633 107.578 151.781 107.52L152.066 134.5C144.736 134.498 137.644 134.743 130.858 135.178C126.869 135.434 122.984 135.755 119.216 136.132C120.459 126.472 122.036 117.59 123.745 109.738C128.817 109.01 134.103 108.43 139.549 108.042ZM92.6736 116.555C100.659 114.123 110.122 111.867 120.574 110.215C118.899 118.064 117.362 126.887 116.152 136.453C104.943 137.682 94.8474 139.386 86.25 141.258C88.0234 132.14 90.2764 123.799 92.6736 116.555ZM155.891 212.476C165.207 212.364 174.878 211.844 184.768 210.805C186.043 199.081 186.555 187.567 186.495 176.5H155.511L155.891 212.476ZM187.822 210.468C197.919 209.302 208.228 207.588 218.603 205.208C220.074 195.478 220.622 185.836 220.478 176.5H189.495C189.554 187.462 189.057 198.86 187.822 210.468ZM152.891 212.499C145.338 212.519 138.032 212.276 131.05 211.828C126.638 211.545 122.357 211.181 118.226 210.751C116.955 199.045 116.445 187.55 116.505 176.5H152.51L152.891 212.499ZM115.173 210.418C113.941 198.827 113.446 187.447 113.505 176.5H82.522C82.3781 185.851 82.9282 195.51 84.4044 205.255C93.0665 207.241 103.474 209.087 115.173 210.418ZM187.215 139.462C197.102 140.583 207.194 142.229 217.356 144.509C218.348 150.08 219.154 155.917 219.701 161.951C220.044 165.731 220.286 169.586 220.408 173.5H189.465C189.29 161.5 188.458 150.054 187.215 139.462ZM155.098 137.515C164.465 137.604 174.198 138.105 184.156 139.131C185.43 149.803 186.286 161.365 186.465 173.5H155.479L155.098 137.515ZM131.05 138.172C137.788 137.74 144.826 137.497 152.098 137.5L152.479 173.5H116.535C116.714 161.386 117.567 149.842 118.838 139.186C122.779 138.783 126.855 138.441 131.05 138.172ZM85.6527 144.462C94.2119 142.55 104.392 140.787 115.779 139.513C114.539 150.091 113.71 161.519 113.535 173.5H82.5921C82.7145 169.586 82.9558 165.731 83.2987 161.951C83.8477 155.9 84.6566 150.047 85.6527 144.462Z" fill="#111111"/>
<path fill-rule="evenodd" clip-rule="evenodd" d="M63.5 52C63.5 51.1716 62.8284 50.5 62 50.5C61.1716 50.5 60.5 51.1716 60.5 52V60.5H51C50.1716 60.5 49.5 61.1716 49.5 62C49.5 62.8284 50.1716 63.5 51 63.5H60.5V74C60.5 74.8284 61.1716 75.5 62 75.5C62.8284 75.5 63.5 74.8284 63.5 74V63.5H73C73.8284 63.5 74.5 62.8284 74.5 62C74.5 61.1716 73.8284 60.5 73 60.5H63.5V52Z" fill="#111111"/>
<path fill-rule="evenodd" clip-rule="evenodd" d="M266.334 140.687C266.716 139.951 266.428 139.048 265.691 138.668C264.955 138.289 264.049 138.578 263.667 139.313L259.469 147.405L250.132 142.596C249.396 142.217 248.49 142.506 248.108 143.241C247.727 143.977 248.014 144.88 248.751 145.259L258.088 150.068L253.536 158.842C253.155 159.577 253.442 160.481 254.179 160.86C254.915 161.239 255.822 160.95 256.203 160.215L260.755 151.441L268.31 155.331C269.046 155.711 269.953 155.422 270.334 154.687C270.716 153.951 270.428 153.048 269.691 152.668L262.137 148.778L266.334 140.687Z" fill="#111111"/>
<path fill-rule="evenodd" clip-rule="evenodd" d="M47.8948 103.687C48.2763 102.951 47.9885 102.048 47.252 101.668C46.5154 101.289 45.6091 101.578 45.2276 102.313L40.8307 110.789L32.69 106.596C31.9535 106.217 31.0472 106.506 30.6657 107.241C30.2842 107.977 30.572 108.88 31.3085 109.259L39.4492 113.452L35.0966 121.842C34.7151 122.577 35.0029 123.481 35.7394 123.86C36.4759 124.239 37.3822 123.95 37.7637 123.215L42.1164 114.825L50.8675 119.331C51.604 119.711 52.5103 119.422 52.8918 118.687C53.2733 117.951 52.9855 117.048 52.249 116.668L43.4979 112.162L47.8948 103.687Z" fill="#111111"/>
<path fill-rule="evenodd" clip-rule="evenodd" d="M251.471 57.9261C251.429 57.0987 250.725 56.461 249.898 56.5019C249.07 56.5427 248.433 57.2465 248.474 58.0739L248.922 67.0926L238.925 67.5857C238.097 67.6266 237.46 68.3304 237.501 69.1578C237.542 69.9852 238.246 70.6229 239.074 70.582L249.071 70.0889L249.566 80.0468C249.607 80.8742 250.311 81.5119 251.139 81.471C251.966 81.4302 252.604 80.7264 252.562 79.899L252.068 69.9411L261.047 69.4982C261.874 69.4573 262.512 68.7535 262.471 67.9261C262.429 67.0987 261.725 66.461 260.898 66.5019L251.919 66.9448L251.471 57.9261Z" fill="#111111"/>
<circle cx="35.5" cy="166.5" r="3" fill="white" stroke="#111111" stroke-width="3"/>
<circle cx="206.5" cy="67.5" r="3" fill="white" stroke="#111111" stroke-width="3"/>
<circle cx="246.5" cy="110.5" r="3" fill="white" stroke="#111111" stroke-width="3"/>
<circle cx="91.5" cy="76.5" r="3" fill="white" stroke="#111111" stroke-width="3"/>
</svg>

<svg xmlns="http://www.w3.org/2000/svg" fill="none" viewBox="0 0 300 300"><path fill="#111" stroke="#111" stroke-width="3" d="M107 31.5h89a6.5 6.5 0 0 1 6.5 6.5v5a9.5 9.5 0 0 1-9.5 9.5h-83a9.5 9.5 0 0 1-9.5-9.5v-5a6.5 6.5 0 0 1 6.5-6.5Z"/><path stroke="#111" stroke-linejoin="round" stroke-width="3" d="M153 52v30"/><path fill="#111" d="M243 174c0 52.467-42.533 95-95 95s-95-42.533-95-95 42.533-95 95-95 95 42.533 95 95Z"/><path fill="#fff" stroke="#111" stroke-width="3" d="M245.5 175c0 51.639-41.861 93.5-93.5 93.5S58.5 226.639 58.5 175s41.861-93.5 93.5-93.5 93.5 41.861 93.5 93.5Z"/><path fill="#111" fill-rule="evenodd" d="m153.241 245.495.259 24.521 3-.032-.259-24.49c7.453-.056 15.091-.513 22.797-1.472a233.54 233.54 0 0 1-6.261 21.489l2.835.978a237.019 237.019 0 0 0 6.612-22.892c9.294-1.323 18.667-3.393 27.917-6.385a137.194 137.194 0 0 1-6.433 14.088l2.654 1.399a140.726 140.726 0 0 0 7.462-16.73 146.403 146.403 0 0 0 15.836-6.622l-1.32-2.694a142.766 142.766 0 0 1-13.216 5.658c2.786-8.187 4.784-16.443 6.128-24.64a259.217 259.217 0 0 0 21.217-5.986l-.938-2.849a255.822 255.822 0 0 1-19.787 5.631c1.364-9.489 1.872-18.878 1.734-27.967H245v-3h-21.591a197.818 197.818 0 0 0-.72-11.82 207.772 207.772 0 0 0-2.16-16.439 256.172 256.172 0 0 1 21.002 5.923l.938-2.85a260.254 260.254 0 0 0-22.518-6.29c-1.713-9.117-3.907-17.503-6.271-24.861a143.118 143.118 0 0 1 14.66 6.184l1.32-2.694a146.914 146.914 0 0 0-17.176-7.087c-2.368-6.881-4.849-12.724-7.147-17.246l-2.674 1.36c1.993 3.922 4.138 8.891 6.227 14.709-9.063-2.847-18.234-4.819-27.327-6.079-2.005-8.778-4.155-16.171-6.149-21.81l-2.828 1c1.879 5.315 3.9 12.222 5.805 20.398-8.002-.967-15.926-1.396-23.642-1.398l-.249-23.516-3 .032.249 23.504a217.57 217.57 0 0 0-12.412.53c-5.115.364-10.094.896-14.892 1.559 1.952-8.487 4.036-15.64 5.969-21.11l-2.828-1c-2.051 5.802-4.268 13.46-6.322 22.573-10.148 1.55-19.421 3.671-27.397 5.997 2.165-6.111 4.4-11.315 6.47-15.39l-2.674-1.359c-2.362 4.648-4.917 10.691-7.344 17.823-6.368 2.001-11.773 4.108-15.963 6.101l1.288 2.709c3.607-1.716 8.17-3.529 13.515-5.286-2.298 7.224-4.429 15.419-6.1 24.309-9.477 2.203-16.893 4.577-21.657 6.648l1.196 2.751c4.373-1.901 11.17-4.101 19.88-6.18a208.148 208.148 0 0 0-2.167 16.485c-.35 3.865-.597 7.811-.72 11.82H58v3h21.522c-.138 9.102.371 18.506 1.74 28.011-8.129-1.992-14.496-4.075-18.664-5.887l-1.196 2.751c4.543 1.976 11.5 4.226 20.354 6.341 1.318 8.03 3.264 16.115 5.965 24.136-4.729-1.606-8.798-3.246-12.077-4.806l-1.288 2.709c3.893 1.852 8.834 3.802 14.621 5.674a140.896 140.896 0 0 0 7.66 17.27l2.655-1.399a137.499 137.499 0 0 1-6.687-14.742c8.082 2.419 17.566 4.642 27.99 6.266a237.474 237.474 0 0 0 6.793 23.665l2.835-.978a233.901 233.901 0 0 1-6.434-22.213c5 .707 10.199 1.271 15.548 1.652 4.533.322 9.178.512 13.904.545Zm2.968-3.001c7.707-.057 15.603-.55 23.559-1.59 2.057-9.056 3.58-18.106 4.651-27.047a315.665 315.665 0 0 1-28.496 1.619l.286 27.018Zm26.734-2.033c9.528-1.42 19.119-3.643 28.551-6.86 3.001-8.353 5.149-16.799 6.593-25.199-10.324 2.319-20.573 3.989-30.608 5.125-1.044 8.899-2.529 17.91-4.536 26.934Zm-29.734 2.034a214.209 214.209 0 0 1-13.66-.538 222.3 222.3 0 0 1-16.484-1.794c-1.977-8.827-3.448-17.646-4.491-26.36a330.38 330.38 0 0 0 34.349 1.695l.286 26.997Zm-33.325-2.821a268.055 268.055 0 0 1-4.369-26.198c-11.535-1.288-21.875-3.077-30.594-5.028 1.41 8.19 3.49 16.424 6.377 24.571 8.094 2.539 17.803 4.916 28.586 6.655Zm62.375-130.236c9.291 1.348 18.647 3.455 27.862 6.499 2.478 7.399 4.812 15.97 6.638 25.366-10.093-2.215-20.109-3.813-29.917-4.902-1.25-9.863-2.846-18.935-4.583-26.963Zm-27.478-1.938c7.941.004 16.094.465 24.314 1.509 1.768 8.015 3.401 17.128 4.681 27.068a316.451 316.451 0 0 0-28.71-1.563l-.285-27.014Zm-15.232.542c4-.284 8.084-.464 12.232-.522l.285 26.98a330.425 330.425 0 0 0-32.85 1.632c1.243-9.66 2.82-18.542 4.529-26.394a222.824 222.824 0 0 1 15.804-1.696Zm-46.875 8.513c7.985-2.432 17.448-4.688 27.9-6.34-1.675 7.849-3.212 16.672-4.422 26.238-11.209 1.229-21.305 2.933-29.902 4.805 1.773-9.118 4.026-17.459 6.424-24.703Zm63.217 95.921a312.64 312.64 0 0 0 28.877-1.671c1.275-11.724 1.787-23.238 1.727-34.305h-30.984l.38 35.976Zm31.931-2.008c10.097-1.166 20.406-2.88 30.781-5.26 1.471-9.73 2.019-19.372 1.875-28.708h-30.983c.059 10.962-.438 22.36-1.673 33.968Zm-34.931 2.031a327.924 327.924 0 0 1-34.665-1.748c-1.271-11.706-1.781-23.201-1.721-34.251h36.005l.381 35.999Zm-37.718-2.081c-1.232-11.591-1.727-22.971-1.668-33.918H82.522c-.144 9.351.406 19.01 1.882 28.755 8.663 1.986 19.07 3.832 30.769 5.163Zm72.042-70.956c9.887 1.121 19.979 2.767 30.141 5.047a205.397 205.397 0 0 1 2.345 17.442c.343 3.78.585 7.635.707 11.549h-30.943c-.175-12-1.007-23.446-2.25-34.038Zm-32.117-1.947c9.367.089 19.1.59 29.058 1.616a332.122 332.122 0 0 1 2.309 34.369h-30.986l-.381-35.985Zm-24.048.657a327.146 327.146 0 0 1 21.048-.672l.381 36h-35.944a332.011 332.011 0 0 1 2.303-34.314c3.941-.403 8.017-.745 12.212-1.014Zm-45.397 6.29c8.559-1.912 18.739-3.675 30.126-4.949a334.716 334.716 0 0 0-2.244 33.987H82.592c.123-3.914.364-7.769.707-11.549a205.475 205.475 0 0 1 2.354-17.489ZM63.5 52a1.5 1.5 0 0 0-3 0v8.5H51a1.5 1.5 0 0 0 0 3h9.5V74a1.5 1.5 0 0 0 3 0V63.5H73a1.5 1.5 0 0 0 0-3h-9.5V52ZM266.334 140.687a1.495 1.495 0 0 0-.643-2.019 1.506 1.506 0 0 0-2.024.645l-4.198 8.092-9.337-4.809a1.506 1.506 0 0 0-2.024.645 1.494 1.494 0 0 0 .643 2.018l9.337 4.809-4.552 8.774a1.494 1.494 0 0 0 .643 2.018c.736.379 1.643.09 2.024-.645l4.552-8.774 7.555 3.89c.736.38 1.643.091 2.024-.644a1.495 1.495 0 0 0-.643-2.019l-7.554-3.89 4.197-8.091ZM47.895 103.687a1.495 1.495 0 0 0-.643-2.019 1.506 1.506 0 0 0-2.024.645l-4.397 8.476-8.141-4.193a1.506 1.506 0 0 0-2.024.645 1.494 1.494 0 0 0 .642 2.018l8.141 4.193-4.352 8.39a1.494 1.494 0 0 0 .642 2.018c.737.379 1.643.09 2.025-.645l4.352-8.39 8.752 4.506c.736.38 1.642.091 2.024-.644a1.495 1.495 0 0 0-.643-2.019l-8.751-4.506 4.397-8.475ZM251.471 57.926a1.5 1.5 0 1 0-2.997.148l.448 9.019-9.997.493a1.5 1.5 0 1 0 .149 2.996l9.997-.493.495 9.958a1.5 1.5 0 0 0 2.996-.148l-.494-9.958 8.979-.443a1.5 1.5 0 1 0-.149-2.996l-8.979.443-.448-9.019Z" clip-rule="evenodd"/><circle cx="35.5" cy="166.5" r="3" fill="#fff" stroke="#111" stroke-width="3"/><circle cx="206.5" cy="67.5" r="3" fill="#fff" stroke="#111" stroke-width="3"/><circle cx="246.5" cy="110.5" r="3" fill="#fff" stroke="#111" stroke-width="3"/><circle cx="91.5" cy="76.5" r="3" fill="#fff" stroke="#111" stroke-width="3"/></svg>
